assets/images/icons/icon_settings.svg

<svg width="25" height="24" viewBox="0 0 25 24" fill="none" xmlns="http://www.w3.org/2000/svg">
<g clip-path="url(#clip0)">
<path fill-rule="evenodd" clip-rule="evenodd" d="M21.0303 8.85L23.1303 9.525C23.6553 9.675 24.0303 10.2 24.0303 10.725V13.275C24.0303 13.8 23.6553 14.25 23.2053 14.4L21.0303 15.075L20.5803 16.2L21.6303 18.15C21.8553 18.6 21.7803 19.2 21.4053 19.575L19.6053 21.375C19.2303 21.75 18.6303 21.825 18.1803 21.6L16.2303 20.55L15.1053 21L14.4303 23.175C14.2803 23.625 13.8303 24 13.3053 24H10.7553C10.2303 24 9.78027 23.625 9.63027 23.175L8.95527 21L7.83027 20.55L5.88027 21.6C5.43027 21.825 4.83027 21.75 4.45527 21.375L2.65527 19.575C2.28027 19.2 2.20527 18.6 2.43027 18.15L3.48027 16.2L3.03027 15.075L0.930273 14.4C0.405273 14.25 0.0302734 13.8 0.0302734 13.275V10.725C0.0302734 10.2 0.405273 9.75 0.855273 9.6L2.95527 8.925C3.03027 8.7375 3.10527 8.53125 3.18027 8.325C3.25527 8.11875 3.33027 7.9125 3.40527 7.725L2.43027 5.85C2.20527 5.4 2.28027 4.8 2.65527 4.425L4.45527 2.625C4.83027 2.25 5.43027 2.175 5.88027 2.4L7.83027 3.45C8.20527 3.225 8.58027 3.075 9.03027 3L9.70527 0.9C9.78027 0.375 10.2303 0 10.7553 0H13.3053C13.8303 0 14.2803 0.375 14.4303 0.825L15.1053 2.925L16.2303 3.375L18.1803 2.325C18.6303 2.1 19.2303 2.175 19.6053 2.55L21.4053 4.35C21.7803 4.725 21.8553 5.325 21.6303 5.775L20.5803 7.725L21.0303 8.85ZM19.8303 13.875L22.5303 13.05V10.95L19.8303 10.125L19.7553 9.75C19.6053 9.225 19.3803 8.7 19.0803 8.175L18.8553 7.8L20.2053 5.325L18.7053 3.825L16.2303 5.175L15.8553 4.95C15.3303 4.65 14.8053 4.425 14.2803 4.275L13.9053 4.125L13.0803 1.5H10.9803L10.1553 4.125L9.78027 4.275C9.18027 4.425 8.65527 4.65 8.13027 4.95L7.75527 5.175L5.35527 3.825L3.85527 5.325L5.13027 7.8L4.90527 8.175C4.60527 8.7 4.38027 9.225 4.23027 9.825L4.08027 10.2L1.53027 10.95V13.05L4.23027 13.875L4.30527 14.25C4.45527 14.775 4.68027 15.3 4.98027 15.825L5.20527 16.2L3.85527 18.675L5.35527 20.175L7.83027 18.825L8.20527 19.05L9.78027 19.725L10.1553 19.8L10.9803 22.5H13.0803L13.9053 19.8L14.2803 19.725C14.8053 19.575 15.3303 19.35 15.8553 19.05L16.2303 18.825L18.7053 20.175L20.2053 18.675L18.8553 16.2L19.0803 15.825L19.7553 14.25L19.8303 13.875ZM6.85608 12C6.85608 9.075 9.18108 6.75 12.1061 6.75C15.0311 6.75 17.3561 9.075 17.3561 12C17.3561 14.925 15.0311 17.25 12.1061 17.25C9.18108 17.25 6.85608 14.925 6.85608 12ZM8.35608 12C8.35608 14.1 10.0061 15.75 12.1061 15.75C14.2061 15.75 15.8561 14.1 15.8561 12C15.8561 9.9 14.2061 8.25 12.1061 8.25C10.0061 8.25 8.35608 9.9 8.35608 12Z"/>
</g>
<defs>
<clipPath id="clip0">
<rect width="24" height="24" transform="translate(0.0302734)"/>
</clipPath>
</defs>
</svg>

<svg fill="none" height="24" viewBox="0 0 25 24" width="25" xmlns="http://www.w3.org/2000/svg" xmlns:xlink="http://www.w3.org/1999/xlink"><clipPath id="a"><path d="m.030273 0h24v24h-24z"/></clipPath><g clip-path="url(#a)"><path clip-rule="evenodd" d="m21.0303 8.85 2.1.675c.525.15.9.675.9 1.2v2.55c0 .525-.375.975-.825 1.125l-2.175.675-.45 1.125 1.05 1.95c.225.45.15 1.05-.225 1.425l-1.8 1.8c-.375.375-.975.45-1.425.225l-1.95-1.05-1.125.45-.675 2.175c-.15.45-.6.825-1.125.825h-2.55c-.525 0-.97503-.375-1.12503-.825l-.675-2.175-1.125-.45-1.95 1.05c-.45.225-1.05.15-1.425-.225l-1.8-1.8c-.375-.375-.45-.975-.225-1.425l1.05-1.95-.45-1.125-2.099997-.675c-.525-.15-.8999996-.6-.8999996-1.125v-2.55c0-.525.3749996-.975.8249996-1.125l2.099997-.675c.075-.1875.15-.39375.225-.6s.15-.4125.225-.6l-.975-1.875c-.225-.45-.15-1.05.225-1.425l1.8-1.8c.375-.375.975-.45 1.425-.225l1.95 1.05c.375-.225.75-.375 1.2-.45l.675-2.1c.075-.525.52503-.9 1.05003-.9h2.55c.525 0 .975.375 1.125.825l.675 2.1 1.125.45 1.95-1.05c.45-.225 1.05-.15 1.425.225l1.8 1.8c.375.375.45.975.225 1.425l-1.05 1.95zm-1.2 5.025 2.7-.825v-2.1l-2.7-.825-.075-.375c-.15-.525-.375-1.05-.675-1.575l-.225-.375 1.35-2.475-1.5-1.5-2.475 1.35-.375-.225c-.525-.3-1.05-.525-1.575-.675l-.375-.15-.825-2.625h-2.1l-.825 2.625-.37503.15c-.6.15-1.125.375-1.65.675l-.375.225-2.4-1.35-1.5 1.5 1.275 2.475-.225.375c-.3.525-.525 1.05-.675 1.65l-.15.375-2.55.75v2.1l2.7.825.075.375c.15.525.375 1.05.675 1.575l.225.375-1.35 2.475 1.5 1.5 2.475-1.35.375.225 1.575.675.37503.075.825 2.7h2.1l.825-2.7.375-.075c.525-.15 1.05-.375 1.575-.675l.375-.225 2.475 1.35 1.5-1.5-1.35-2.475.225-.375.675-1.575zm-12.97422-1.875c0-2.925 2.325-5.25 5.25002-5.25 2.925 0 5.25 2.325 5.25 5.25s-2.325 5.25-5.25 5.25c-2.92502 0-5.25002-2.325-5.25002-5.25zm1.5 0c0 2.1 1.65002 3.75 3.75002 3.75s3.75-1.65 3.75-3.75-1.65-3.75-3.75-3.75-3.75002 1.65-3.75002 3.75z" fill-rule="evenodd"/></g></svg>
